X: 1
T: Morpeth Rant
S: Trevor Jennings
N: Welsh hornpipe setting
M: 4/4
L: 1/8
R: hornpipe
K: Gmaj
DF|G2DC B,G,B,D|ECEG FDFA|BGcA dBAG|FGAB cBAG|
G2DC B,G,B,D|ECEG FDFA|BGcA BGAF|G2G2 G2:|
|:df|gdBG FAce|dBAG GFED|cAcA BGBG|F2D2 D2GF|
ECEG cBAG|FDFA dcBA|dgfg ecAc|B2G2 G2:|
